X: 339
T: The Telegraph
%R: strathspey, reel
Z: 2014 John Chambers <jc:trillian.mit.edu>
B: Preston "Twenty four Country Dances for the Year 1798" p.150 #1
F: http://www.vwml.org/browse/browse-collections-dance-tune-books/browse-prestons1798# 2014-8-10
N: The 2nd strain has initial repeat but no final repeat; not fixed.
M: C|
L: 1/8
K: D
|:\
A>BAF (A<d)f>d | (A<F)ED E>DEF |\
A>BAF (A<d)fd | (A<F)EF D2D2 :|
|:\
f>gfe dBdB | (A<d)fd edBd |\
A>GFd B>AGg | fdaf (f2e2) |
d>efe dcBd | e>fgf edca |\
f>edB A<dfd | A<FE>F D2D2 |]
% - - - - - - - - - - - - - - - - - - - - - - - - -
%%begintext align
%% Set 2 Cu: & change sides .| set & change
%% sides back again :|. lead down the middle foot
%% it :|. Allemande :|:
%%endtext
% - - - - - - - - - - - - - - - - - - - - - - - - -

%%sep 1 1 500
%%sep 1 1 500
